icon-themes/sifr_svg/cmd/lc_printdefault.svg

<svg viewBox="0 0 24 24" xmlns="http://www.w3.org/2000/svg"><path d="m7 4v3h10v-3zm-4 4c-.554 0-1 .446-1 1v4h6c.5019841 0 1.0607616.197492 1.4394531.560547.1810224.139456.357705.291202.5351563.439453h8.0253906v2h3c.554 0 1-.446 1-1v-6c0-.554-.446-1-1-1zm-1 6v1c0 2.209139 1.790861 4 4 4h2.8222656l-1.5097656 1.28125c-.18267.19029-.3125.46186-.3125.71875v1h.4140625.5859375c.30945 0 .55232-.09029.75-.28125l3.25-2.84375v-1.705078c-1.083465-.958134-2.166532-2.068043-3.25-2.888672-.19768-.19095-.44055-.28125-.75-.28125h-.5859375-.4140625v1c0 .25689.12983.52846.3125.71875l1.5097656 1.28125h-2.8222656c-1.104569 0-2-.895431-2-2v-1zm9.115234 1c.529154.486701 1.044656.975797 1.546875 1.419922l.337891.298828v2.609375l-1.912109 1.671875h5.912109v-6z" fill="#555753"/></svg>

<svg xmlns="http://www.w3.org/2000/svg" viewBox="0 0 24 24">
  <path
     style="fill:#555753"
     d="M 7 4 L 7 7 L 17 7 L 17 4 L 7 4 z M 3 8 C 2.446 8 2 8.446 2 9 L 2 13 L 8 13 C 8.5019841 13 9.0607616 13.197492 9.4394531 13.560547 C 9.6204755 13.700003 9.7971581 13.851749 9.9746094 14 L 18 14 L 18 16 L 21 16 C 21.554 16 22 15.554 22 15 L 22 9 C 22 8.446 21.554 8 21 8 L 3 8 z M 2 14 L 2 15 C 2 17.209139 3.790861 19 6 19 L 8.8222656 19 L 7.3125 20.28125 C 7.12983 20.47154 7 20.74311 7 21 L 7 22 L 7.4140625 22 L 8 22 C 8.30945 22 8.55232 21.90971 8.75 21.71875 L 12 18.875 L 12 17.169922 C 10.916535 16.211788 9.833468 15.101879 8.75 14.28125 C 8.55232 14.0903 8.30945 14 8 14 L 7.4140625 14 L 7 14 L 7 15 C 7 15.25689 7.12983 15.52846 7.3125 15.71875 L 8.8222656 17 L 6 17 C 4.895431 17 4 16.104569 4 15 L 4 14 L 2 14 z M 11.115234 15 C 11.644388 15.486701 12.15989 15.975797 12.662109 16.419922 L 13 16.71875 L 13 19.328125 L 11.087891 21 L 17 21 L 17 15 L 11.115234 15 z "
     />
</svg>
